!!!!SEGMENT: pl-sa--l-1643--083_anonim--deo-dicamus-gratias.krn
!!!cenid: 16xx:1441
!!!COM: Anonim
!!!COM-rismid: pe30004985
!!!CDT:
!!!CNT:
!!!OTL: Deo dicamus gratias
!!!PDT:
!!!AGN: Sacred
!!!SMS-siglum: PL-SA
!!!SMS-shelfmark: L 1643
!!!SMS-shelfwork: 083 W
!!!SMS-variant:
!!!SMS-altvar:
!!!NIFC-rismid: 1001063742
!!!URL-scan: http://repozytorium.nifc.pl/skany/pl-sa-nut--l1643
!!!ONB-nifc: UWAGA: 8 ksiąg. Primi chori: 1mus Cantus (x), C 2dus (133),
!!!key:
**kern	**text	**kern	**text
*part2	*part2	*part1	*part1
*staff2	*staff2	*staff1	*staff1
*Iempty	*	*Iempty	*
*I"Baſsus 2di Chori.	*	*I"Cantus 2dus Primi Chori.	*
*I'Coro 2 B	*	*I'Coro 1 S 2	*
*clefC3	*	*clefC1	*
*k[b-]	*	*k[b-]	*
*c:	*	*c:	*
*M2/2	*	*M2/2	*
*met(C|)	*	*met(C|)	*
=1	=1	=1	=1
!LO:TX:t=P:problem=skan 0029	!	!	!
00r	.	1a\	De-
=2-	=2-	=2-	=2-
.	.	2.b-\	-o
.	.	4a\	.
=3-	=3-	=3-	=3-
.	.	1g\	di-
=4-	=4-	=4-	=4-
.	.	2.b-\	ca-
.	.	4a\	.
=5-	=5-	=5-	=5-
1r	.	1g\	.
=6-	=6-	=6-	=6-
!	!	!LO:TX:t=P:♯below:problem	!
2.d\	De-	2f#X/	-mus;
.	.	2r	.
4c/	.	.	.
=7-	=7-	=7-	=7-
1B-/	-o	00r	.
=8-	=8-	=8-	=8-
!LO:SIC:v:t=custos G	!	!	!
1c\	di-	.	.
=9-	=9-	=9-	=9-
*lig	*	*	*
!LO:LB:g=original	!	!	!
1G/	-ca-	.	.
=10-	=10-	=10-	=10-
1c\	.	.	.
*Xlig	*	*	*
=11-	=11-	=11-	=11-
1G/	-mus	1r	.
=12-	=12-	=12-	=12-
*M3/2	*	*M3/2	*
0.r	.	0.r	.
=13-	=13-	=13-	=13-
.	.	.	.
=14-	=14-	=14-	=14-
2g\	De-	2dd\	De-
2g\	-o	2b-\	-o
2c/	di-	2cc\	di-
=15-	=15-	=15-	=15-
1g\	-ca-	1dd\	-ca-
2g\	-mus	2dd\	-mus,
=16-	=16-	=16-	=16-
0.r	.	0.r	.
=17-	=17-	=17-	=17-
.	.	.	.
=18-	=18-	=18-	=18-
2g\	De-	2dd\	De-
2g\	-o	2b-\	-o
2c/	di-	2cc\	di-
=19-	=19-	=19-	=19-
1g\	-ca-	1dd\	-ca-
2g\	-mus	2dd\	-mus,
=20-	=20-	=20-	=20-
!	!	!LO:LB:g=original	!
0.r	.	0.r	.
=21-	=21-	=21-	=21-
.	.	.	.
=22-	=22-	=22-	=22-
2c/	De-	2cc\	De-
2c/	-o	2cc\	-o
2f\	di-	2cc\	di-
=23-	=23-	=23-	=23-
1c\	-ca-	1cc\	-ca-
2c/	-mus	2cc\	-mus,
=24-	=24-	=24-	=24-
0.r	.	0.r	.
=25-	=25-	=25-	=25-
.	.	.	.
=26-	=26-	=26-	=26-
2c/	De-	2cc\	De-
!LO:SIC:v:t=custos f	!	!	!
2c/	-o	2cc\	-o
!LO:LB:g=original	!	!	!
2f\	di-	2cc\	di-
=27-	=27-	=27-	=27-
1c\	-ca-	1cc\	-ca-
2c/	-mus	2cc\	-mus,
=28-	=28-	=28-	=28-
00.r	.	00.r	.
=29-	=29-	=29-	=29-
.	.	.	.
=30-	=30-	=30-	=30-
.	.	.	.
=31-	=31-	=31-	=31-
.	.	.	.
=32-	=32-	=32-	=32-
2c/	De-	2cc\	De-
2c/	-o	2cc\	-o
2f\	di-	2cc\	di-
=33-	=33-	=33-	=33-
1c\	-ca-	1cc\	-ca-
2c/	-mus	2cc\	-mus
=34-	=34-	=34-	=34-
!	!	!LO:TX:a:t=P:problem=# below	!
!	!	!LO:N:acc=#	!
1g\	gra-	1bn\	gra-
!	!	!LO:TX:a:t=P:problem=# below	!
!	!	!LO:N:acc=#	!
2g\	-ti-	2bn\	-ti-
=35-	=35-	=35-	=35-
*M2/2	*	*M2/2	*
*met(C|)	*	*met(C|)	*
1c\	-as	1cc\	-as
=36-	=36-	=36-	=36-
4c/	De-	2r	.
4d\	.	.	.
!	!	!LO:SIC:v:t=custos b	!
4e\	.	2cc\	De-
4f\	.	.	.
=37-	=37-	=37-	=37-
!	!	!LO:LB:g=original	!
2g\	-o	2b-y\	-o
2g\	di-	2b-\	di-
=38-	=38-	=38-	=38-
2d\	-ca-	2a\	-ca-
2g\	-mus	2b-\	-mus
=39-	=39-	=39-	=39-
2.d\	gra-	2.a\	gra-
4d\	-ti-	4a\	-ti-
=40-	=40-	=40-	=40-
!LO:SIC:v:t=custos g	!	!	!
2g\	-as	2b-,<\	-as
!LO:LB:g=original	!	!	!
2g\	De-	2b-\	De-
=41-	=41-	=41-	=41-
2c/	-o	2cc\	-o
2g\	di-	2b-\	di-
=42-	=42-	=42-	=42-
2c/	-ca-	2cc\	-ca-
2g\	-mus	2b-\	-mus
=43-	=43-	=43-	=43-
1.c\	gra-	1.cc\	gra-
=44-	=44-	=44-	=44-
.	.	.	.
2c/	-ti-	2cc\	-ti-
=45-	=45-	=45-	=45-
!	!	!LO:N:acc=#	!
0g\l	-as	0bn\l	-as
==	==	==	==
*-	*-	*-	*-
!!!system-decoration: [(s1)][(s2)]
!!!AIN: 2 empty
!!!ENC: Filip Voros
!!!END: 2021-10-19
!!!RDF**kern: l = terminal long
!!!RDF**kern: < = below
!!!EED: Andrzej Borzym
!!!EST: 2021-10-23
